static/images/icon-2.svg

<?xml version="1.0" encoding="UTF-8"?>
<svg width="52px" height="53px" viewBox="0 0 52 53" version="1.1" xmlns="http://www.w3.org/2000/svg" xmlns:xlink="http://www.w3.org/1999/xlink">
    <title>Shape</title>
    <g id="Page-1" stroke="none" stroke-width="1" fill="none" fill-rule="evenodd">
        <path d="M26,0.8 C11.6406613,0.8 0,12.4405565 0,26.8 C0,41.1594435 11.6406613,52.8 26,52.8 C40.3593387,52.8 52,41.1593387 52,26.8 C52,12.4406613 40.3594435,0.8 26,0.8 Z M39.6403548,13.1596452 C46.5018387,20.021129 46.9790645,30.5084597 41.8081048,37.8635242 L14.936371,10.992 C22.2964677,5.81758065 32.7826452,6.30204032 39.6403548,13.1596452 Z M12.3596452,40.4403548 C5.49816129,33.578871 5.02093548,23.0915403 10.1918952,15.7364758 L37.063629,42.608 C29.7036371,47.7824194 19.2173548,47.2980645 12.3596452,40.4403548 Z" id="Shape" fill="#FD4EC7" fill-rule="nonzero"></path>
    </g>
</svg>

<svg width="52" height="53" viewBox="0 0 52 53" xmlns="http://www.w3.org/2000/svg"><path d="M26 .8C11.64.8 0 12.44 0 26.8s11.64 26 26 26 26-11.64 26-26S40.36.8 26 .8zm13.64 12.36c6.862 6.861 7.34 17.348 2.168 24.704L14.936 10.992c7.36-5.174 17.847-4.69 24.704 2.168zM12.36 40.44c-6.862-6.861-7.34-17.348-2.168-24.704l26.872 26.872c-7.36 5.174-17.847 4.69-24.704-2.168z" fill="#FD4EC7" fill-rule="nonzero"/></svg>
